!!!COM: Anon.
!!!OTL: O que tens, o/ Juliana
!!!OTL: Romanceiro Folclorico do Brasil
!!!CNT: Brasil
!!!OCY: Brasil
!!!ODT: <1971///
!!!PSR: Irmaos Vitale
!!!PSP: Sao Paulo, Brasil
!!!PDT: 1950///
!!!PPE: Rossini Tavares de Lima
!!!PPG: page 11
!! Romance: Juliana E D. Jorge
!! Place: Agudos, Sao Paulo, Brasil
**kern
*clefG2
*k[b-e-a-]
*M3/4
*MM100
8g
8ee-
=
4cc
4g
8f
8e-
=
4g
4d
8g
8dd
=
4bn
4g
8an
8b
=
2cc
8g
8g
=
4ee-
4cc
8dd
8ee-
=
4dd
4cc
8g
8a-
=
4g
8f
8f
8e-8d
=
2c
==
*-
